X:1
T:A COSSACK LULLABY
M:3/4
Q:1/4=120
K:Bb
G4B2|A4D2|G4B2|A4D2|B4B2|c4fe|d6|-d6|f6|-f4d2|
c4dc|B4B2|A4D2|G3ABc|d5_G|G6|-G11/2||
